docs/img/all-services/12.svg

<svg width="80" height="80" viewBox="0 0 80 80" fill="none" xmlns="http://www.w3.org/2000/svg">
<path d="M21.5874 37.1208L19.6323 40.4896C18.9844 41.6051 17.9577 42.4494 16.7391 42.8696L9.62486 45.3221C9.36226 45.3796 9.02601 45.4872 8.66264 45.6195C8.62521 45.6328 8.58705 45.6472 8.54904 45.661C4.95619 47.0107 2.64413 50.5297 2.64413 54.3659L1.42969 64.7337" stroke="#0098D0" stroke-width="2" stroke-miterlimit="10" stroke-linecap="round" stroke-linejoin="round"/>
<path d="M29.9492 37.1208L31.9049 40.4896C32.5521 41.6051 33.5789 42.4494 34.7974 42.8696L41.9117 45.3221C42.1737 45.3796 42.51 45.4872 42.8734 45.6195C42.9114 45.6328 42.9495 45.6472 42.987 45.661C46.5798 47.0107 48.8919 50.5297 48.8919 54.3659L50.1063 64.7337" stroke="#0098D0" stroke-width="2" stroke-miterlimit="10" stroke-linecap="round" stroke-linejoin="round"/>
<path d="M14.6016 20.1824C14.7139 22.9543 15.6612 29.5929 18.5348 34.1773C20.2273 36.7765 22.9079 38.3098 25.7579 38.3098C28.6067 38.3098 31.2874 36.7765 32.9799 34.1773C35.2419 30.7049 36.4309 24.7598 36.4309 20.8091" stroke="#0098D0" stroke-width="2" stroke-miterlimit="10" stroke-linecap="round" stroke-linejoin="round"/>
<path d="M21.0127 14.2022C25.5148 19.5549 30.2145 16.3945 36.4292 20.8097L36.8721 17.9993C37.3334 15.0737 36.7848 12.0415 35.1597 9.56544C33.0693 6.38025 29.53 4.28571 25.515 4.28571C22.1018 4.28571 19.0323 5.79897 16.9051 8.20887C14.502 10.9313 13.5909 14.6644 14.2445 18.2358L14.5999 20.1824C17.9941 18.6629 20.6736 15.8944 21.762 12.3397" stroke="#0098D0" stroke-width="2" stroke-miterlimit="10" stroke-linecap="round" stroke-linejoin="round"/>
<path d="M16.7383 42.869L25.5352 50.1977L34.7963 42.869" stroke="#0098D0" stroke-width="2" stroke-miterlimit="10" stroke-linecap="round" stroke-linejoin="round"/>
<path d="M55.3906 26.5118H58.9032L60.4385 30.4073L62.0966 26.5118L63.7534 22.6176L65.2887 26.5118H67.0163H68.7439" stroke="#0098D0" stroke-width="2" stroke-miterlimit="10" stroke-linecap="round" stroke-linejoin="round"/>
<path d="M75.934 41.3069H48.1984C46.7408 41.3069 45.5586 40.1258 45.5586 38.6691V36.9505H78.5732V38.6691C78.5738 40.1264 77.3921 41.3069 75.934 41.3069Z" stroke="#0098D0" stroke-width="2" stroke-miterlimit="10" stroke-linecap="round" stroke-linejoin="round"/>
<path d="M76.4231 36.9504V19.8386C76.4231 18.4653 75.3081 17.3523 73.9352 17.3523H50.1975C48.824 17.3523 47.7109 18.4659 47.7109 19.8381V36.9504" stroke="#0098D0" stroke-width="2" stroke-miterlimit="10" stroke-linecap="round" stroke-linejoin="round"/>
<path d="M62.0666 41.3068V63.5825V69.0953C62.0666 72.7513 59.1026 75.7143 55.4441 75.7143H32.4116C28.7536 75.7143 25.7891 72.7513 25.7891 69.0953" stroke="#0098D0" stroke-width="2" stroke-miterlimit="10" stroke-linecap="round" stroke-linejoin="round"/>
<path d="M15.955 60.9602C17.4272 60.9602 18.6206 59.7674 18.6206 58.2959C18.6206 56.8245 17.4272 55.6315 15.955 55.6315C14.4828 55.6315 13.2891 56.8245 13.2891 58.2959C13.2891 59.7674 14.4828 60.9602 15.955 60.9602Z" stroke="#0098D0" stroke-width="2" stroke-miterlimit="10" stroke-linecap="round" stroke-linejoin="round"/>
<path d="M25.7906 60.9602C27.2629 60.9602 28.4563 59.7674 28.4563 58.2959C28.4563 56.8245 27.2629 55.6315 25.7906 55.6315C24.3184 55.6315 23.125 56.8245 23.125 58.2959C23.125 59.7674 24.3184 60.9602 25.7906 60.9602Z" stroke="#0098D0" stroke-width="2" stroke-miterlimit="10" stroke-linecap="round" stroke-linejoin="round"/>
<path d="M35.6227 60.9602C37.0949 60.9602 38.2883 59.7674 38.2883 58.2959C38.2883 56.8245 37.0949 55.6315 35.6227 55.6315C34.1505 55.6315 32.957 56.8245 32.957 58.2959C32.957 59.7674 34.1505 60.9602 35.6227 60.9602Z" stroke="#0098D0" stroke-width="2" stroke-miterlimit="10" stroke-linecap="round" stroke-linejoin="round"/>
<path d="M15.9531 60.9601L16.9395 63.2624C18.4558 66.8004 21.9356 69.0958 25.787 69.0958C29.6385 69.0958 33.1186 66.801 34.6349 63.2624L35.6213 60.9601" stroke="#0098D0" stroke-width="2" stroke-miterlimit="10" stroke-linecap="round" stroke-linejoin="round"/>
<path d="M25.7891 60.9601V65.0278" stroke="#0098D0" stroke-width="2" stroke-miterlimit="10" stroke-linecap="round" stroke-linejoin="round"/>
</svg>

<svg width="80" height="80" fill="none" xmlns="http://www.w3.org/2000/svg"><path d="M21.587 37.12l-1.955 3.37a5.37 5.37 0 01-2.893 2.38l-7.114 2.452a8.052 8.052 0 00-.962.297l-.114.042c-3.593 1.35-5.905 4.869-5.905 8.705L1.43 64.734M29.95 37.12l1.955 3.37a5.366 5.366 0 002.892 2.38l7.115 2.452c.262.058.598.165.961.297l.114.042c3.593 1.35 5.905 4.869 5.905 8.705l1.214 10.368" stroke="#0098D0" stroke-width="2" stroke-miterlimit="10" stroke-linecap="round" stroke-linejoin="round"/><path d="M14.602 20.182c.112 2.772 1.06 9.41 3.933 13.995 1.692 2.6 4.373 4.133 7.223 4.133 2.849 0 5.53-1.534 7.222-4.133 2.262-3.472 3.45-9.417 3.45-13.368" stroke="#0098D0" stroke-width="2" stroke-miterlimit="10" stroke-linecap="round" stroke-linejoin="round"/><path d="M21.013 14.202c4.502 5.353 9.201 2.193 15.416 6.608l.443-2.81c.461-2.926-.087-5.959-1.712-8.435-2.09-3.185-5.63-5.28-9.645-5.28-3.413 0-6.483 1.514-8.61 3.924-2.403 2.722-3.314 6.455-2.66 10.027l.355 1.946c3.394-1.52 6.074-4.288 7.162-7.842m-5.024 30.529l8.797 7.329 9.261-7.329M55.39 26.512h3.513l1.535 3.895 1.659-3.895 1.656-3.894 1.536 3.894h3.455m7.19 14.795H48.198a2.64 2.64 0 01-2.64-2.638v-1.718h33.015v1.718a2.637 2.637 0 01-2.639 2.638z" stroke="#0098D0" stroke-width="2" stroke-miterlimit="10" stroke-linecap="round" stroke-linejoin="round"/><path d="M76.423 36.95V19.84a2.488 2.488 0 00-2.488-2.487H50.197a2.487 2.487 0 00-2.486 2.486V36.95m14.356 4.357v27.788a6.62 6.62 0 01-6.623 6.62H32.412a6.62 6.62 0 01-6.623-6.62m-9.834-8.135a2.665 2.665 0 10.001-5.33 2.665 2.665 0 00-.001 5.33zm9.835 0a2.665 2.665 0 10.002-5.33 2.665 2.665 0 00-.001 5.33z" stroke="#0098D0" stroke-width="2" stroke-miterlimit="10" stroke-linecap="round" stroke-linejoin="round"/><path d="M35.623 60.96a2.665 2.665 0 10.001-5.33 2.665 2.665 0 00-.001 5.33zm-19.67 0l.986 2.302a9.626 9.626 0 0017.696 0l.986-2.302m-9.831 0v4.068" stroke="#0098D0" stroke-width="2" stroke-miterlimit="10" stroke-linecap="round" stroke-linejoin="round"/></svg>
